;FLAVOR:Marlin
;TIME:4347
;Filament used: 19.6817m
;Layer height: 1
;MINX:75.5
;MINY:75.5
;MINZ:1
;MAXX:124.5
;MAXY:124.5
;MAXZ:50
;Generated with Cura_SteamEngine 4.8.0
M104 S215
M105
M109 S215
M82 ;absolute extrusion mode
G28 ;Home
G1 Z15.0 F6000 ;Move the platform down 15mm
;Prime the extruder
G92 E0
G1 F200 E3
G92 E0
G92 E0
G92 E0
;LAYER_COUNT:50
;LAYER:0
M107
;MESH:k??p sldrt 50x50.STL
G0 F3600 X124.5 Y124.5 Z1
;TYPE:WALL-OUTER
G1 F1800 X75.5 Y124.5 E7.68098
G1 X75.5 Y75.5 E15.36195
G1 X124.5 Y75.5 E23.04293
G1 X124.5 Y124.5 E30.72391
G0 F3600 X124.43 Y124.43
G0 X123.51 Y123.51
;TYPE:SKIN
G1 F1800 X76.49 Y123.51 E38.09451
G1 X76.49 Y76.49 E45.46512
G1 X123.51 Y76.49 E52.83572
G1 X123.51 Y123.51 E60.20632
G0 F3600 X123.059 Y77.805
G1 F1800 X122.195 Y76.94 E60.39797
G0 F3600 X120.78 Y76.94
G1 F1800 X123.059 Y79.219 E60.90319
G0 F3600 X123.059 Y80.633
G1 F1800 X119.366 Y76.94 E61.72187
G0 F3600 X117.952 Y76.94
G1 F1800 X123.059 Y82.047 E62.85401
G0 F3600 X123.059 Y83.461
G1 F1800 X116.538 Y76.94 E64.29962
G0 F3600 X115.124 Y76.94
G1 F1800 X123.059 Y84.876 E66.05879
G0 F3600 X123.059 Y86.29
G1 F1800 X113.709 Y76.94 E68.13154
G0 F3600 X112.295 Y76.94
G1 F1800 X123.059 Y87.704 E70.51776
G0 F3600 X123.059 Y89.118
G1 F1800 X110.881 Y76.94 E73.21743
G0 F3600 X109.467 Y76.94
G1 F1800 X123.059 Y90.533 E76.23068
G0 F3600 X123.059 Y91.947
G1 F1800 X108.052 Y76.94 E79.5575
G0 F3600 X106.638 Y76.94
G1 F1800 X123.059 Y93.361 E83.19778
G0 F3600 X123.059 Y94.775
G1 F1800 X105.224 Y76.94 E87.15152
G0 F3600 X103.81 Y76.94
G1 F1800 X123.059 Y96.189 E91.41873
G0 F3600 X123.059 Y97.604
G1 F1800 X102.396 Y76.94 E95.99951
G0 F3600 X100.981 Y76.94
G1 F1800 X123.059 Y99.018 E100.89386
G0 F3600 X123.059 Y100.432
G1 F1800 X99.567 Y76.94 E106.10167
G0 F3600 X98.153 Y76.94
G1 F1800 X123.059 Y101.846 E111.62295
G0 F3600 X123.059 Y103.26
G1 F1800 X96.739 Y76.94 E117.45768
G0 F3600 X95.325 Y76.94
G1 F1800 X123.059 Y104.675 E123.60599
G0 F3600 X123.059 Y106.089
G1 F1800 X93.91 Y76.94 E130.06787
G0 F3600 X92.496 Y76.94
G1 F1800 X123.059 Y107.503 E136.84322
G0 F3600 X123.059 Y108.917
G1 F1800 X91.082 Y76.94 E143.93203
G0 F3600 X89.668 Y76.94
G1 F1800 X123.059 Y110.331 E151.33429
G0 F3600 X123.059 Y111.746
G1 F1800 X88.253 Y76.94 E159.05025
G0 F3600 X86.839 Y76.94
G1 F1800 X123.059 Y113.16 E167.07966
G0 F3600 X123.059 Y114.574
G1 F1800 X85.425 Y76.94 E175.42254
G0 F3600 X84.011 Y76.94
G1 F1800 X123.059 Y115.988 E184.07887
G0 F3600 X123.059 Y117.403
G1 F1800 X82.597 Y76.94 E193.04878
G0 F3600 X81.182 Y76.94
G1 F1800 X123.059 Y118.817 E202.33227
G0 F3600 X123.059 Y120.231
G1 F1800 X79.768 Y76.94 E211.92921
G0 F3600 X78.354 Y76.94
G1 F1800 X123.059 Y121.645 E221.83962
G0 F3600 X123.059 Y123.059
G1 F1800 X76.939 Y76.939 E232.06371
G0 F3600 X76.939 Y78.353
G1 F1800 X121.644 Y123.059 E241.97423
G0 F3600 X120.23 Y123.059
G1 F1800 X76.939 Y79.768 E251.57117
G0 F3600 X76.939 Y81.182
G1 F1800 X118.816 Y123.059 E260.85466
G0 F3600 X117.402 Y123.059
G1 F1800 X76.939 Y82.596 E269.82468
G0 F3600 X76.939 Y84.01
G1 F1800 X115.988 Y123.059 E278.48124
G0 F3600 X114.573 Y123.059
G1 F1800 X76.939 Y85.424 E286.82422
G0 F3600 X76.939 Y86.839
G1 F1800 X113.159 Y123.059 E294.85364
G0 F3600 X111.745 Y123.059
G1 F1800 X76.939 Y88.253 E302.56959
G0 F3600 X76.939 Y89.667
G1 F1800 X110.331 Y123.059 E309.97208
G0 F3600 X108.917 Y123.059
G1 F1800 X76.939 Y91.081 E317.06111
G0 F3600 X76.939 Y92.495
G1 F1800 X107.502 Y123.059 E323.83656
G0 F3600 X106.088 Y123.059
G1 F1800 X76.939 Y93.91 E330.29845
G0 F3600 X76.939 Y95.324
G1 F1800 X104.674 Y123.059 E336.44687
G0 F3600 X103.26 Y123.059
G1 F1800 X76.939 Y96.738 E342.28182
G0 F3600 X76.939 Y98.152
G1 F1800 X101.846 Y123.059 E347.80332
G0 F3600 X100.431 Y123.059
G1 F1800 X76.939 Y99.566 E353.01124
G0 F3600 X76.939 Y100.981
G1 F1800 X99.017 Y123.059 E357.9056
G0 F3600 X97.603 Y123.059
G1 F1800 X76.939 Y102.395 E362.48649
G0 F3600 X76.939 Y103.809
G1 F1800 X96.189 Y123.059 E366.75391
G0 F3600 X94.774 Y123.059
G1 F1800 X76.939 Y105.223 E370.70777
G0 F3600 X76.939 Y106.638
G1 F1800 X93.36 Y123.059 E374.34805
G0 F3600 X91.946 Y123.059
G1 F1800 X76.939 Y108.052 E377.67487
G0 F3600 X76.939 Y109.466
G1 F1800 X90.532 Y123.059 E380.68823
G0 F3600 X89.118 Y123.059
G1 F1800 X76.939 Y110.88 E383.38812
G0 F3600 X76.939 Y112.294
G1 F1800 X87.703 Y123.059 E385.77445
G0 F3600 X86.289 Y123.059
G1 F1800 X76.939 Y113.709 E387.8472
G0 F3600 X76.939 Y115.123
G1 F1800 X84.875 Y123.059 E389.60648
G0 F3600 X83.461 Y123.059
G1 F1800 X76.939 Y116.537 E391.05231
G0 F3600 X76.939 Y117.951
G1 F1800 X82.047 Y123.059 E392.18468
G0 F3600 X80.632 Y123.059
G1 F1800 X76.939 Y119.365 E393.00347
G0 F3600 X76.939 Y120.78
G1 F1800 X79.218 Y123.059 E393.50869
G0 F3600 X77.804 Y123.059
G1 F1800 X76.939 Y122.194 E393.70044
;MESH:NONMESH
G0 F600 X76.939 Y122.194 Z2
G0 F3600 X124.43 Y124.43
G0 X124.5 Y124.5
;TIME_ELAPSED:90.665340
;LAYER:1
;TYPE:WALL-OUTER
;MESH:k??p sldrt 50x50.STL
G1 F1800 X75.5 Y124.5 E401.38142
G1 X75.5 Y75.5 E409.0624
G1 X124.5 Y75.5 E416.74338
G1 X124.5 Y124.5 E424.42435
G0 F5400 X124.43 Y124.43
G0 X123.51 Y123.51
;TYPE:SKIN
G1 F1800 X76.49 Y123.51 E431.79496
G1 X76.49 Y76.49 E439.16556
G1 X123.51 Y76.49 E446.53616
G1 X123.51 Y123.51 E453.90676
G0 F5400 X121.599 Y123.059
G1 F1800 X123.059 Y121.599 E454.23042
G0 F5400 X123.059 Y120.185
G1 F1800 X120.184 Y123.059 E454.86766
G0 F5400 X118.77 Y123.059
G1 F1800 X123.059 Y118.771 E455.81835
G0 F5400 X123.059 Y117.357
G1 F1800 X117.356 Y123.059 E457.08251
G0 F5400 X115.942 Y123.059
G1 F1800 X123.059 Y115.942 E458.66024
G0 F5400 X123.059 Y114.528
G1 F1800 X114.527 Y123.059 E460.55154
G0 F5400 X113.113 Y123.059
G1 F1800 X123.059 Y113.114 E462.7563
G0 F5400 X123.059 Y111.7
G1 F1800 X111.699 Y123.059 E465.27453
G0 F5400 X110.285 Y123.059
G1 F1800 X123.059 Y110.286 E468.10621
G0 F5400 X123.059 Y108.871
G1 F1800 X108.871 Y123.059 E471.25147
G0 F5400 X107.456 Y123.059
G1 F1800 X123.059 Y107.457 E474.71031
G0 F5400 X123.059 Y106.043
G1 F1800 X106.042 Y123.059 E478.4826
G0 F5400 X104.628 Y123.059
G1 F1800 X123.059 Y104.629 E482.56836
G0 F5400 X123.059 Y103.214
G1 F1800 X103.214 Y123.059 E486.96769
G0 F5400 X101.8 Y123.059
G1 F1800 X123.059 Y101.8 E491.68048
G0 F5400 X123.059 Y100.386
G1 F1800 X100.385 Y123.059 E496.70684
G0 F5400 X98.971 Y123.059
G1 F1800 X123.059 Y98.972 E502.04667
G0 F5400 X123.059 Y97.558
G1 F1800 X97.557 Y123.059 E507.69996
G0 F5400 X96.143 Y123.059
G1 F1800 X123.059 Y96.143 E513.66682
G0 F5400 X123.059 Y94.729
G1 F1800 X94.728 Y123.059 E519.94725
G0 F5400 X93.314 Y123.059
G1 F1800 X123.059 Y93.315 E526.54115
G0 F5400 X123.059 Y91.901
G1 F1800 X91.9 Y123.059 E533.44851
G0 F5400 X90.486 Y123.059
G1 F1800 X123.059 Y90.487 E540.66933
G0 F5400 X123.059 Y89.072
G1 F1800 X89.072 Y123.059 E548.20372
G0 F5400 X87.657 Y123.059
G1 F1800 X123.059 Y87.658 E556.05168
G0 F5400 X123.059 Y86.244
G1 F1800 X86.243 Y123.059 E564.21311
G0 F5400 X84.829 Y123.059
G1 F1800 X123.059 Y84.83 E572.688
G0 F5400 X123.059 Y83.415
G1 F1800 X83.415 Y123.059 E581.47646
G0 F5400 X82.001 Y123.059
G1 F1800 X123.059 Y82.001 E590.57838
G0 F5400 X123.059 Y80.587
G1 F1800 X80.586 Y123.059 E599.99388
G0 F5400 X79.172 Y123.059
G1 F1800 X123.059 Y79.173 E609.72284
G0 F5400 X123.059 Y77.759
G1 F1800 X77.758 Y123.059 E619.76526
G0 F5400 X76.94 Y122.463
G1 F1800 X122.464 Y76.939 E629.85723
G0 F5400 X121.05 Y76.939
G1 F1800 X76.94 Y121.049 E639.63573
G0 F5400 X76.94 Y119.635
G1 F1800 X119.636 Y76.939 E649.10077
G0 F5400 X118.221 Y76.939
G1 F1800 X76.94 Y118.221 E658.25224
G0 F5400 X76.94 Y116.806
G1 F1800 X116.807 Y76.939 E667.09014
G0 F5400 X115.393 Y76.939
G1 F1800 X76.94 Y115.392 E675.61458
G0 F5400 X76.94 Y113.978
G1 F1800 X113.979 Y76.939 E683.82555
G0 F5400 X112.565 Y76.939
G1 F1800 X76.94 Y112.564 E691.72306
G0 F5400 X76.94 Y111.15
G1 F1800 X111.15 Y76.939 E699.307
G0 F5400 X109.736 Y76.939
G1 F1800 X76.94 Y109.735 E706.57737
G0 F5400 X76.94 Y108.321
G1 F1800 X108.322 Y76.939 E713.53427
G0 F5400 X106.908 Y76.939
G1 F1800 X76.94 Y106.907 E720.17771
G0 F5400 X76.94 Y105.493
G1 F1800 X105.493 Y76.939 E726.50758
G0 F5400 X104.079 Y76.939
G1 F1800 X76.94 Y104.079 E732.52399
G0 F5400 X76.94 Y102.664
G1 F1800 X102.665 Y76.939 E738.22682
G0 F5400 X101.251 Y76.939
G1 F1800 X76.94 Y101.25 E743.6162
G0 F5400 X76.94 Y99.836
G1 F1800 X99.837 Y76.939 E748.69211
G0 F5400 X98.422 Y76.939
G1 F1800 X76.94 Y98.422 E753.45445
G0 F5400 X76.94 Y97.007
G1 F1800 X97.008 Y76.939 E757.90321
G0 F5400 X95.594 Y76.939
G1 F1800 X76.94 Y95.593 E762.03851
G0 F5400 X76.94 Y94.179
G1 F1800 X94.18 Y76.939 E765.86036
G0 F5400 X92.766 Y76.939
G1 F1800 X76.94 Y92.765 E769.36873
G0 F5400 X76.94 Y91.351
G1 F1800 X91.351 Y76.939 E772.56354
G0 F5400 X89.937 Y76.939
G1 F1800 X76.94 Y89.936 E775.44478
G0 F5400 X76.94 Y88.522
G1 F1800 X88.523 Y76.939 E778.01255
G0 F5400 X87.109 Y76.939
G1 F1800 X76.94 Y87.108 E780.26686
G0 F5400 X76.94 Y85.694
G1 F1800 X85.694 Y76.939 E782.20759
G0 F5400 X84.28 Y76.939
G1 F1800 X76.94 Y84.28 E783.83487
G0 F5400 X76.94 Y82.865
G1 F1800 X82.866 Y76.939 E785.14857
G0 F5400 X81.452 Y76.939
G1 F1800 X76.94 Y81.451 E786.14881
G0 F5400 X76.94 Y80.037
G1 F1800 X80.038 Y76.939 E786.83559
G0 F5400 X78.623 Y76.939
G1 F1800 X76.94 Y78.623 E787.2088
G0 F5400 X76.94 Y77.208
G1 F1800 X77.209 Y76.939 E787.26843
;MESH:NONMESH
G0 F600 X77.209 Y76.939 Z3
G0 F5400 X124.43 Y124.43
G0 X124.5 Y124.5
;TIME_ELAPSED:177.576514
;LAYER:2
;TYPE:WALL-OUTER
;MESH:k??p sldrt 50x50.STL
G1 F1800 X75.5 Y124.5 E794.94941
G1 X75.5 Y75.5 E802.63039
G1 X124.5 Y75.5 E810.31136
G1 X124.5 Y124.5 E817.99234
G0 F7200 X124.43 Y124.43
G0 X123.51 Y123.51
;TYPE:SKIN
G1 F1800 X76.49 Y123.51 E825.36294
G1 X76.49 Y76.49 E832.73355
G1 X123.51 Y76.49 E840.10415
G1 X123.51 Y123.51 E847.47475
G0 F7200 X123.059 Y77.805
G1 F1800 X122.195 Y76.94 E847.6664
G0 F7200 X120.78 Y76.94
G1 F1800 X123.059 Y79.219 E848.17162
G0 F7200 X123.059 Y80.633
G1 F1800 X119.366 Y76.94 E848.9903
G0 F7200 X117.952 Y76.94
G1 F1800 X123.059 Y82.047 E850.12244
G0 F7200 X123.059 Y83.461
G1 F1800 X116.538 Y76.94 E851.56805
G0 F7200 X115.124 Y76.94
G1 F1800 X123.059 Y84.876 E853.32722
G0 F7200 X123.059 Y86.29
G1 F1800 X113.709 Y76.94 E855.39997
G0 F7200 X112.295 Y76.94
G1 F1800 X123.059 Y87.704 E857.78619
G0 F7200 X123.059 Y89.118
G1 F1800 X110.881 Y76.94 E860.48586
G0 F7200 X109.467 Y76.94
G1 F1800 X123.059 Y90.533 E863.49911
G0 F7200 X123.059 Y91.947
G1 F1800 X108.052 Y76.94 E866.82593
G0 F7200 X106.638 Y76.94
G1 F1800 X123.059 Y93.361 E870.46621
G0 F7200 X123.059 Y94.775
G1 F1800 X105.224 Y76.94 E874.41995
G0 F7200 X103.81 Y76.94
G1 F1800 X123.059 Y96.189 E878.68716
G0 F7200 X123.059 Y97.604
G1 F1800 X102.396 Y76.94 E883.26794
G0 F7200 X100.981 Y76.94
G1 F1800 X123.059 Y99.018 E888.16229
G0 F7200 X123.059 Y100.432
G1 F1800 X99.567 Y76.94 E893.3701
G0 F7200 X98.153 Y76.94
G1 F1800 X123.059 Y101.846 E898.89138
G0 F7200 X123.059 Y103.26
G1 F1800 X96.739 Y76.94 E904.72611
G0 F7200 X95.325 Y76.94
G1 F1800 X123.059 Y104.675 E910.87442
G0 F7200 X123.059 Y106.089
G1 F1800 X93.91 Y76.94 E917.33631
G0 F7200 X92.496 Y76.94
G1 F1800 X123.059 Y107.503 E924.11165
G0 F7200 X123.059 Y108.917
G1 F1800 X91.082 Y76.94 E931.20046
G0 F7200 X89.668 Y76.94
G1 F1800 X123.059 Y110.331 E938.60272
G0 F7200 X123.059 Y111.746
G1 F1800 X88.253 Y76.94 E946.31868
G0 F7200 X86.839 Y76.94
G1 F1800 X123.059 Y113.16 E954.34809
G0 F7200 X123.059 Y114.574
G1 F1800 X85.425 Y76.94 E962.69097
G0 F7200 X84.011 Y76.94
G1 F1800 X123.059 Y115.988 E971.3473
G0 F7200 X123.059 Y117.403
G1 F1800 X82.597 Y76.94 E980.31721
G0 F7200 X81.182 Y76.94
G1 F1800 X123.059 Y118.817 E989.6007
G0 F7200 X123.059 Y120.231
G1 F1800 X79.768 Y76.94 E999.19764
G0 F7200 X78.354 Y76.94
G1 F1800 X123.059 Y121.645 E1009.10805
G0 F7200 X123.059 Y123.059
G1 F1800 X76.939 Y76.939 E1019.33214
G0 F7200 X76.939 Y78.353
G1 F1800 X121.644 Y123.059 E1029.24266
G0 F7200 X120.23 Y123.059
G1 F1800 X76.939 Y79.768 E1038.8396
G0 F7200 X76.939 Y81.182
G1 F1800 X118.816 Y123.059 E1048.12309
G0 F7200 X117.402 Y123.059
G1 F1800 X76.939 Y82.596 E1057.09311
G0 F7200 X76.939 Y84.01
G1 F1800 X115.988 Y123.059 E1065.74967
G0 F7200 X114.573 Y123.059
G1 F1800 X76.939 Y85.424 E1074.09265
G0 F7200 X76.939 Y86.839
G1 F1800 X113.159 Y123.059 E1082.12207
G0 F7200 X111.745 Y123.059
G1 F1800 X76.939 Y88.253 E1089.83802
G0 F7200 X76.939 Y89.667
G1 F1800 X110.331 Y123.059 E1097.24051
G0 F7200 X108.917 Y123.059
G1 F1800 X76.939 Y91.081 E1104.32954
G0 F7200 X76.939 Y92.495
G1 F1800 X107.502 Y123.059 E1111.10499
G0 F7200 X106.088 Y123.059
G1 F1800 X76.939 Y93.91 E1117.56688
G0 F7200 X76.939 Y95.324
G1 F1800 X104.674 Y123.059 E1123.7153
G0 F7200 X103.26 Y123.059
G1 F1800 X76.939 Y96.738 E1129.55026
G0 F7200 X76.939 Y98.152
G1 F1800 X101.846 Y123.059 E1135.07175
G0 F7200 X100.431 Y123.059
G1 F1800 X76.939 Y99.566 E1140.27968
G0 F7200 X76.939 Y100.981
G1 F1800 X99.017 Y123.059 E1145.17403
G0 F7200 X97.603 Y123.059
G1 F1800 X76.939 Y102.395 E1149.75492
G0 F7200 X76.939 Y103.809
G1 F1800 X96.189 Y123.059 E1154.02234
G0 F7200 X94.774 Y123.059
G1 F1800 X76.939 Y105.223 E1157.9762
G0 F7200 X76.939 Y106.638
G1 F1800 X93.36 Y123.059 E1161.61648
G0 F7200 X91.946 Y123.059
G1 F1800 X76.939 Y108.052 E1164.9433
G0 F7200 X76.939 Y109.466
G1 F1800 X90.532 Y123.059 E1167.95666
G0 F7200 X89.118 Y123.059
G1 F1800 X76.939 Y110.88 E1170.65655
G0 F7200 X76.939 Y112.294
G1 F1800 X87.703 Y123.059 E1173.04288
G0 F7200 X86.289 Y123.059
G1 F1800 X76.939 Y113.709 E1175.11563
G0 F7200 X76.939 Y115.123
G1 F1800 X84.875 Y123.059 E1176.87492
G0 F7200 X83.461 Y123.059
G1 F1800 X76.939 Y116.537 E1178.32074
G0 F7200 X76.939 Y117.951
G1 F1800 X82.047 Y123.059 E1179.45311
G0 F7200 X80.632 Y123.059
G1 F1800 X76.939 Y119.365 E1180.2719
G0 F7200 X76.939 Y120.78
G1 F1800 X79.218 Y123.059 E1180.77712
G0 F7200 X77.804 Y123.059
G1 F1800 X76.939 Y122.194 E1180.96887
;MESH:NONMESH
G0 F600 X76.939 Y122.194 Z4
G0 F7200 X124.43 Y124.43
G0 X124.5 Y124.5
;TIME_ELAPSED:264.587651
;LAYER:3
;TYPE:WALL-OUTER
;MESH:k??p sldrt 50x50.STL
G1 F1800 X75.5 Y124.5 E1188.64985
G1 X75.5 Y75.5 E1196.33083
G1 X124.5 Y75.5 E1204.01181
G1 X124.5 Y124.5 E1211.69278
G0 F7200 X124.43 Y124.43
G0 X123.51 Y123.51
;TYPE:SKIN
G1 F1800 X76.49 Y123.51 E1219.06339
G1 X76.49 Y76.49 E1226.43399
G1 X123.51 Y76.49 E1233.80459
G1 X123.51 Y123.51 E1241.1752
G0 F7200 X121.599 Y123.059
G1 F1800 X123.059 Y121.599 E1241.49886
G0 F7200 X123.059 Y120.185
G1 F1800 X120.184 Y123.059 E1242.13609
G0 F7200 X118.77 Y123.059
G1 F1800 X123.059 Y118.771 E1243.08678
G0 F7200 X123.059 Y117.357
G1 F1800 X117.356 Y123.059 E1244.35094
G0 F7200 X115.942 Y123.059
G1 F1800 X123.059 Y115.942 E1245.92867
G0 F7200 X123.059 Y114.528
G1 F1800 X114.527 Y123.059 E1247.81997
G0 F7200 X113.113 Y123.059
G1 F1800 X123.059 Y113.114 E1250.02473
G0 F7200 X123.059 Y111.7
G1 F1800 X111.699 Y123.059 E1252.54296
G0 F7200 X110.285 Y123.059
G1 F1800 X123.059 Y110.286 E1255.37464
G0 F7200 X123.059 Y108.871
G1 F1800 X108.871 Y123.059 E1258.5199
G0 F7200 X107.456 Y123.059
G1 F1800 X123.059 Y107.457 E1261.97874
G0 F7200 X123.059 Y106.043
G1 F1800 X106.042 Y123.059 E1265.75103
G0 F7200 X104.628 Y123.059
G1 F1800 X123.059 Y104.629 E1269.83679
G0 F7200 X123.059 Y103.214
G1 F1800 X103.214 Y123.059 E1274.23612
G0 F7200 X101.8 Y123.059
G1 F1800 X123.059 Y101.8 E1278.94891
G0 F7200 X123.059 Y100.386
G1 F1800 X100.385 Y123.059 E1283.97527
G0 F7200 X98.971 Y123.059
G1 F1800 X123.059 Y98.972 E1289.3151
G0 F7200 X123.059 Y97.558
G1 F1800 X97.557 Y123.059 E1294.96839
G0 F7200 X96.143 Y123.059
G1 F1800 X123.059 Y96.143 E1300.93525
